X: 40813
T: Traditional, The
R: jig
M: 6/8
K: Gmajor
|:B/c/|dBG GFG|Bcd =fdB|cA=F FEF|C=FA c2 B/c/|
dBG GFG|BB/c/d fga|gfd cAF|GAG G2:|
|:B/c/|dgg gfg|bag agf|cde =fef|ag=f ag^f|
d2 g gfg|Bcd fga|g>fd cAF|GAG G2:|

